brandFactory_export/2.Regular/Pantalla completa_2Regular.svg

<?xml version="1.0" encoding="UTF-8"?>
<svg width="24px" height="24px" viewBox="0 0 24 24" version="1.1" xmlns="http://www.w3.org/2000/svg" xmlns:xlink="http://www.w3.org/1999/xlink">
    <title>2.Regular/Pantalla completa_2Regular</title>
    <g id="Symbols" stroke="none" stroke-width="1" fill="none" fill-rule="evenodd">
        <g id="2.Regular/Pantalla-completa_2Regular" fill="#5CB615" fill-rule="nonzero">
            <path d="M1.01176471,8.44705882 C0.453781513,8.44705882 0,7.99327731 0,7.43529412 L0,1.01176471 C0,0.453781513 0.453781513,0 1.01176471,0 L7.43865546,0 C7.99663866,0.0201680672 8.43361345,0.490756303 8.41344538,1.05210084 C8.39327731,1.57983193 7.9697479,2.00672269 7.43865546,2.02689076 L2.02352941,2.02689076 L2.02352941,7.43865546 C2.02352941,7.99327731 1.5697479,8.44705882 1.01176471,8.44705882 Z M7.4487395,21.6 C8.00672269,21.6201681 8.44369748,22.0907563 8.42352941,22.6521008 C8.40336134,23.1798319 7.97983193,23.6067227 7.4487395,23.6268908 L1.01848739,23.6268908 C0.460504202,23.6268908 0.00672268908,23.1731092 0.00672268908,22.6151261 L0.00672268908,16.1882353 C0.00672268908,15.6302521 0.460504202,15.1764706 1.01848739,15.1764706 C1.57647059,15.1764706 2.0302521,15.6302521 2.0302521,16.1882353 L2.0302521,21.6 L7.4487395,21.6 Z M22.605042,15.1596639 C23.1630252,15.1596639 23.6168067,15.6134454 23.6168067,16.1714286 L23.6168067,22.594958 C23.6168067,23.1529412 23.1630252,23.6067227 22.605042,23.6067227 L16.1747899,23.6067227 C15.6168067,23.5764706 15.1865546,23.0991597 15.2168067,22.5411765 C15.2436975,22.0235294 15.6571429,21.6134454 16.1747899,21.5831933 L21.589916,21.5831933 L21.589916,16.1714286 C21.5932773,15.6134454 22.0436975,15.1596639 22.605042,15.1596639 Z M22.6117647,0.0268907563 C23.1697479,0.0268907563 23.6235294,0.477310924 23.6235294,1.03865546 L23.6235294,7.46218487 C23.6033613,8.02016807 23.1327731,8.45714286 22.5714286,8.43697479 C22.0436975,8.41680672 21.6168067,7.99327731 21.5966387,7.46218487 L21.5966387,2.05378151 L16.1815126,2.05378151 C15.6235294,2.05378151 15.1697479,1.6 15.1697479,1.04201681 C15.1697479,0.484033613 15.6235294,0.0302521008 16.1815126,0.0302521008 L22.6117647,0.0302521008 L22.6117647,0.0268907563 Z" id="Pantalla-completa_2Regular"></path>
        </g>
    </g>
</svg>

<svg width="24" height="24" viewBox="0 0 24 24" xmlns="http://www.w3.org/2000/svg"><path d="M1.012 8.447A1.013 1.013 0 010 7.435V1.012C0 .454.454 0 1.012 0h6.427a1.014 1.014 0 010 2.027H2.024v5.412c0 .554-.454 1.008-1.012 1.008zM7.449 21.6a1.014 1.014 0 010 2.027h-6.43a1.013 1.013 0 01-1.012-1.012v-6.427a1.013 1.013 0 012.023 0V21.6H7.45zm15.156-6.44c.558 0 1.012.453 1.012 1.011v6.424c0 .558-.454 1.012-1.012 1.012h-6.43a1.014 1.014 0 010-2.024h5.415v-5.412a1.016 1.016 0 011.015-1.011zM22.612.027c.558 0 1.012.45 1.012 1.012v6.423a1.014 1.014 0 01-2.027 0V2.054h-5.415a1.013 1.013 0 010-2.024h6.43V.027z" fill="#5CB615" fill-rule="nonzero"/></svg>
